X: 1
T: The 403 Lament
M: 4/4
K: Am
L: 1/8
Q: 80

"Frustration Loop"
|: "Am"A2 "G"G2 "Am"A2 G2 | "Am"c4 z4 | "Dm"d2 "C"c2 "Dm"d2 c2 | "G"B4 z4 :|

"The Breakthrough"
|: "C"C2 E2 G2 c2 | "G"B4 G4 | "Am"A2 c2 e2 a2 | "E7"g4 z4 :|

"Hopeful Refrain"
|: "Am"A,2 C2 E2 A2 | "G"G,2 B,2 D2 G2 | "C"C2 E2 G2 c2 | "E7"B4 z4 :|
